X:13002
T:Maid Behind the Bar, The
R:Reel
C:Trad.
O:Ireland
M:4/4
L:1/8
Q:1/8=220
K:D
AG|:"D"FAAB AFED|FAAB A2de|"G"fBBA Bcde|"D"f2gf "A"edBA|
"D"FAAB AFED|FAAB A2de|"G"fBBA BcdB|1 "A"AFEF "D"D2AG:|2 "A"AFEF "D"D3e|:
"D"fgag fdde|fdad fdd2|"Em"efga beef|gebe gee2|
"D"faaf bfaf|defd e2de|"G"fBBA BcdB|1 "A"AFEF "D"D3e:|2 "A"AFEF "D"D2|]

